X:1
T:Musa, Amor porta novella
T:Angelo Notari
T:Source : Musiche nuove a uno, due et tre voci +BC---London---W.Hole---1613. Editor : André Vierendeels ( 26/11/16).
T:Notes : Original clefs : C1, C1, F' Editorial accidentals above tja staff Original note values have been halved in 3-beat measures Original in manuscript
T:Musa, Amor porta novella
T:©
T:©
T:©
T:©
C:Angelo Notari
Z:©
%%score [ 1 2 3 ] 4
L:1/8
Q:1/4=123
M:2/2
K:F
V:1 treble nm="Soprano 1" snm="S 1"
V:2 treble nm="Soprano 2" snm="S 2"
V:3 bass nm="Bass" snm="B"
V:4 bass nm="MusicXML Part"
V:1
 B2 c2 d4- | d2 f2 e2 d2 | c4 c2 c2- | c2 d2 _e4- | e2 d2 c3 c | B4 B4 | f2 f2 f4 | _e2 d4 d2 | %8
w: Mu- s'A- mor|_ por- ta no-|vel- la, chè|_ per me|_ pie- na di|pe- ne,|A- ma- ril-|li- de mia|
 c4 c4 | c2 d2 B4 | c4 A3 A | G4 G4 |[M:6/4] z2 g2 g2 f4 e2 | f4 g2 e4 e2 | z2 f2 g2 a6- | %15
w: bel- la,|hà ria feb-|br'en- tro le-|ve- ne,|e dal fior de|la bel- lez- za|sta lon- ta-|
 a4 f2 g4 e2 |[M:4/4] f4 f4 |: ^F2 F2 F4 | ^F2 F4 G2 | ^F4 F2 d2- | d2 e2 ^fdef | g^fge f3 f | %22
w: * na'o- gn'al- le-|grez- za,|e dal fior|de la bel-|lez- za, stà|_ lon- ta- * * *|na'o- * * * gn'al- le-|
 g4 !fermata!g4 :| %23
w: grez- za.|
V:2
 G2 A2 B4- | B2 d2 c3 B | A4 A2 A2- | A2 B2 c4 | B2 B4 A2 | B4 B4 | d2 d2 d4 | c2 B4 B2 | A4 A4 | %9
w: Mu- s'A- mor|_ por- ta no-|vel- la, chè|_ per me|pie- na di|pe- ne,|A- ma- ril-|li- de mia|bel- la,|
w: O Mel- po-|* me- ne di-|le- tia, spie-|ga l'a- li|tue do- *|ra- te,|la, ve l'e-|gra gio- vi-|net- ta|
w: In tua man|so- no i- te-|so- ri di|_ Ca- sti-|lia'e c'E- li-|co- na,|sai di Gio-|ve'i tan- ti'a-|mo- ri,|
 A2 B2 G4 | G2 G4 ^F2 | G4 G4 |[M:6/4] z2 B2 B2 A4 A2 | d4 d2 ^c4 c2 | z6 z2 A2 =B2 | %15
w: hà ria feb-|br'en- tro le-|ve- ne,|e dal fior de|la bel- lez- za|sta lon-|
w: me- na'in do-|glia le gior-|na- te,|e di can- to|fals'- o ve- ro|ras- se-|
w: sai che'l cie-|lo'e- gli'ab- ban-|do- na,|e per far- ne'il|suo de- si- o,|ci tra-|
 ^c4 d2 d4 c2 |[M:4/4] d4 d4 |: A2 A2 A4 | A2 A4 B2 | A4 A2 z2 | f2 e2 d4 | B2 c4 A2 | %22
w: ta- na'o- gn'al le-|grez- za,|e dal fior|de la bel-|lez- za,|stà lon- ta-|na'o- gn'al- le-|
w: re- na'il suo pen-|sie- ro,|e di can-|to fals' o|ve- ro,|ras- se- re-|no'il sue pen-|
w: for- ma la bel-|la Jo,|e per far-|ne'il suo de-|si- o,|ci tra- for-|ma la bel-|
 G4 !fermata!G4 :| %23
w: grez- za.|
w: sie- ro.|
w: la Jo/|
V:3
 G,2 F,2 B,,4- | B,,2 B,,2 C,2 D,2 | F,4 F,2 F,2- | F,2 D,2 C,2 D,2 | _E,2 B,,2 F,2 F,,2 | %5
w: Mi- s'A- mor|_ por- ta no-|vel- la, chè|_ per me pie-|na di pe- *|
 B,,4 B,,4 | B,,2 B,,2 B,,4 | C,2 D,4 E,2 | F,4 F,4 | F,2 D,2 _E,4 | C,4 D,2 D,2 | G,,4 G,,4 | %12
w: * ne,|A- ma- ril-|li- de mia|bel- la,|hà ria feb-|br'en- tro le|ve- ne,|
[M:6/4] z2 G,,2 G,,2 D,4 C,2 | B,,4 G,,2 A,,4 A,,2 | z4 z4 F,2 G,2 | A,4 B,2 G,4 A,2 | %16
w: e dal fior de|la bel- lez- za|stà lo,-|ta- na'o- gn'al- le-|
[M:4/4] D,4 D,4 |: D,2 D,2 D,4 | D,2 D,4 G,,2 | D,4 D,2 B,,2- | B,,2 C,2 D,4 | _E,2 C,4 D,2 | %22
w: grez- za,|e dal fior|de la bel-|lez- za, sta|_ lon- ta-|na'o- gn'al- le|
 G,,4 !fermata!G,,4 :| %23
w: grez- za.|
V:4
"^BC" G,2 F,2 B,,4- | B,,2 B,,2 C,2 D,2 | F,4 F,4 | F,2 D,2 C,2 D,2 | _E,2 B,,2 F,2 F,,2 | %5
 B,,4 B,,4 | B,,4 B,,4 | C,2 D,4 E,2 | F,4 F,4 | F,2 D,2 _E,4 | C,4 D,4 | G,,4 G,,4 | %12
[M:6/4] z2 G,,2 G,,2 D,4 C,2 | B,,4 G,,2 A,,4 A,,2 | D,4 E,2 F,4 G,2 | A,4 B,2 G,4 A,2 | %16
[M:4/4] D,4 D,4 |: D,4 D,4 | D,2 D,4 G,,2 | D,4 D,2 B,,2- | B,,2 C,2 D,4 | _E,2 C,4 D,2 | %22
 G,,4 .!fermata!G,,4 :| %23

